app/assets/images/icons/active/lightbulb--line.svg

<?xml version="1.0" encoding="UTF-8" standalone="no"?>
<svg width="32px" height="232px" viewBox="0 0 32 232" version="1.1" xmlns="http://www.w3.org/2000/svg" xmlns:xlink="http://www.w3.org/1999/xlink" xmlns:sketch="http://www.bohemiancoding.com/sketch/ns">
    <title>lightbulb--line</title>
    <description>Created with Sketch (http://www.bohemiancoding.com/sketch)</description>
    <defs></defs>
    <g id="Actions" stroke="none" stroke-width="1" fill="none" fill-rule="evenodd" sketch:type="MSPage">
        <path d="M15.998979,124.028875 C11.0277935,124.030875 7,127.978875 7,132.847875 C7,135.281875 8.00669314,137.484875 9.63210437,139.078875 C9.63210437,139.078875 10.6224617,140.137875 11.1268293,141.678875 C11.5576858,142.994875 11.6536585,144.770875 11.6536585,144.770875 C11.6536585,147.120875 13.5976177,149.026875 15.998979,149.028875 C18.4003403,149.026875 20.3442995,147.120875 20.3442995,144.770875 C20.3442995,144.770875 20.4402723,142.994875 20.8711288,141.678875 C21.3754963,140.137875 22.3658537,139.078875 22.3658537,139.078875 C23.9912649,137.484875 25,135.281875 25,132.847875 C25,127.978875 20.9701645,124.030875 15.998979,124.028875 C15.998979,124.028875 20.9701645,124.030875 15.998979,124.028875 L15.998979,124.028875 L15.998979,124.028875 Z M17.5600681,146.660875 L14.4399319,146.660875 C14.1346568,146.660875 13.885536,146.419875 13.885536,146.118875 C13.885536,145.819875 14.1346568,145.578875 14.4399319,145.578875 L17.5600681,145.578875 C17.8633012,145.578875 18.112422,145.819875 18.112422,146.118875 C18.112422,146.419875 17.8633012,146.660875 17.5600681,146.660875 L17.5600681,146.660875 L17.5600681,146.660875 L17.5600681,146.660875 Z M18.191038,144.077875 L13.80692,144.077875 C13.5047079,144.077875 13.2555871,143.834875 13.2555871,143.534875 C13.2555871,143.238875 13.5047079,142.994875 13.80692,142.994875 L18.191038,142.994875 C18.4932501,142.994875 18.742371,143.238875 18.742371,143.534875 C18.742371,143.834875 18.4932501,144.077875 18.191038,144.077875 L18.191038,144.077875 L18.191038,144.077875 L18.191038,144.077875 Z M13.7895632,137.188875 C14.4195122,137.317875 14.9984118,137.308875 15.4823596,137.157875 C15.5916052,137.234875 15.7018718,137.321875 15.8376631,137.355875 C16.3981849,137.491875 17.0638684,137.536875 17.8193988,137.200875 L17.1455474,140.807875 L14.7768576,140.807875 L13.7895632,137.188875 L13.7895632,137.188875 L13.7895632,137.188875 L13.7895632,137.188875 Z M14.7921724,134.782875 C14.7247873,134.479875 14.8085082,134.188875 15.0321044,133.976875 C15.135224,133.878875 15.4006807,133.787875 15.6518434,133.794875 C16.1786727,133.810875 16.4451503,134.193875 16.4257516,134.563875 C16.4032898,134.973875 15.9785593,135.566875 15.5579126,135.886875 C15.1934203,135.605875 14.8922292,135.243875 14.7921724,134.782875 C14.7921724,134.782875 14.8922292,135.243875 14.7921724,134.782875 L14.7921724,134.782875 L14.7921724,134.782875 Z M21.5500851,138.281875 C21.478616,138.358875 20.5730006,139.342875 19.9716393,140.807875 L18.2083948,140.807875 L19.2977879,134.984875 L18.194101,135.850875 C17.9276234,136.059875 17.1639251,136.432875 16.5952354,136.432875 C16.5278503,136.432875 16.4635281,136.426875 16.4053318,136.417875 C16.8545661,135.931875 17.4763471,135.264875 17.3844583,134.265875 C17.2915485,133.401875 16.5635848,132.855875 15.5905842,132.855875 C14.7686897,132.855875 13.8610323,133.380875 13.808962,134.309875 C13.7640386,135.174875 14.1867272,135.675875 14.4715825,136.016875 C14.5655133,136.129875 14.6553602,136.238875 14.7247873,136.327875 C14.6951787,136.328875 14.6645491,136.328875 14.6328985,136.328875 C13.9610891,136.328875 13.2913216,136.036875 13.2913216,136.036875 L12.2703347,135.573875 L13.6956324,140.807875 L12.0263188,140.807875 C11.4249575,139.342875 10.521384,138.358875 10.4499149,138.281875 C8.96744186,136.828875 8.15269427,134.899875 8.15269427,132.847875 C8.15269427,128.609875 11.6720363,125.159875 15.998979,125.157875 C20.3279637,125.159875 23.8473057,128.609875 23.8473057,132.847875 C23.8473057,134.899875 23.0325581,136.828875 21.5500851,138.281875 L21.5500851,138.281875 Z M21.5500851,138.281875" id="lightbulb-line--lp-blue" fill="#206FAC" sketch:type="MSShapeGroup"></path>
        <path d="M15.998979,84.028875 C11.0277935,84.030875 7,87.978875 7,92.847875 C7,95.281875 8.00669314,97.484875 9.63210437,99.078875 C9.63210437,99.078875 10.6224617,100.137875 11.1268293,101.678875 C11.5576858,102.994875 11.6536585,104.770875 11.6536585,104.770875 C11.6536585,107.120875 13.5976177,109.026875 15.998979,109.028875 C18.4003403,109.026875 20.3442995,107.120875 20.3442995,104.770875 C20.3442995,104.770875 20.4402723,102.994875 20.8711288,101.678875 C21.3754963,100.137875 22.3658537,99.078875 22.3658537,99.078875 C23.9912649,97.484875 25,95.281875 25,92.847875 C25,87.978875 20.9701645,84.030875 15.998979,84.028875 C15.998979,84.028875 20.9701645,84.030875 15.998979,84.028875 L15.998979,84.028875 L15.998979,84.028875 Z M17.5600681,106.660875 L14.4399319,106.660875 C14.1346568,106.660875 13.885536,106.419875 13.885536,106.118875 C13.885536,105.819875 14.1346568,105.578875 14.4399319,105.578875 L17.5600681,105.578875 C17.8633012,105.578875 18.112422,105.819875 18.112422,106.118875 C18.112422,106.419875 17.8633012,106.660875 17.5600681,106.660875 L17.5600681,106.660875 L17.5600681,106.660875 L17.5600681,106.660875 Z M18.191038,104.077875 L13.80692,104.077875 C13.5047079,104.077875 13.2555871,103.834875 13.2555871,103.534875 C13.2555871,103.238875 13.5047079,102.994875 13.80692,102.994875 L18.191038,102.994875 C18.4932501,102.994875 18.742371,103.238875 18.742371,103.534875 C18.742371,103.834875 18.4932501,104.077875 18.191038,104.077875 L18.191038,104.077875 L18.191038,104.077875 L18.191038,104.077875 Z M13.7895632,97.188875 C14.4195122,97.317875 14.9984118,97.308875 15.4823596,97.157875 C15.5916052,97.234875 15.7018718,97.321875 15.8376631,97.355875 C16.3981849,97.491875 17.0638684,97.536875 17.8193988,97.200875 L17.1455474,100.807875 L14.7768576,100.807875 L13.7895632,97.188875 L13.7895632,97.188875 L13.7895632,97.188875 L13.7895632,97.188875 Z M14.7921724,94.782875 C14.7247873,94.479875 14.8085082,94.188875 15.0321044,93.976875 C15.135224,93.878875 15.4006807,93.787875 15.6518434,93.794875 C16.1786727,93.810875 16.4451503,94.193875 16.4257516,94.563875 C16.4032898,94.973875 15.9785593,95.566875 15.5579126,95.886875 C15.1934203,95.605875 14.8922292,95.243875 14.7921724,94.782875 C14.7921724,94.782875 14.8922292,95.243875 14.7921724,94.782875 L14.7921724,94.782875 L14.7921724,94.782875 Z M21.5500851,98.281875 C21.478616,98.358875 20.5730006,99.342875 19.9716393,100.807875 L18.2083948,100.807875 L19.2977879,94.984875 L18.194101,95.850875 C17.9276234,96.059875 17.1639251,96.432875 16.5952354,96.432875 C16.5278503,96.432875 16.4635281,96.426875 16.4053318,96.417875 C16.8545661,95.931875 17.4763471,95.264875 17.3844583,94.265875 C17.2915485,93.401875 16.5635848,92.855875 15.5905842,92.855875 C14.7686897,92.855875 13.8610323,93.380875 13.808962,94.309875 C13.7640386,95.174875 14.1867272,95.675875 14.4715825,96.016875 C14.5655133,96.129875 14.6553602,96.238875 14.7247873,96.327875 C14.6951787,96.328875 14.6645491,96.328875 14.6328985,96.328875 C13.9610891,96.328875 13.2913216,96.036875 13.2913216,96.036875 L12.2703347,95.573875 L13.6956324,100.807875 L12.0263188,100.807875 C11.4249575,99.342875 10.521384,98.358875 10.4499149,98.281875 C8.96744186,96.828875 8.15269427,94.899875 8.15269427,92.847875 C8.15269427,88.609875 11.6720363,85.159875 15.998979,85.157875 C20.3279637,85.159875 23.8473057,88.609875 23.8473057,92.847875 C23.8473057,94.899875 23.0325581,96.828875 21.5500851,98.281875 L21.5500851,98.281875 Z M21.5500851,98.281875" id="lightbulb-line--white" fill="#FFFFFF" sketch:type="MSShapeGroup"></path>
        <path d="M15.998979,44.028875 C11.0277935,44.030875 7,47.978875 7,52.847875 C7,55.281875 8.00669314,57.484875 9.63210437,59.078875 C9.63210437,59.078875 10.6224617,60.137875 11.1268293,61.678875 C11.5576858,62.994875 11.6536585,64.770875 11.6536585,64.770875 C11.6536585,67.120875 13.5976177,69.026875 15.998979,69.028875 C18.4003403,69.026875 20.3442995,67.120875 20.3442995,64.770875 C20.3442995,64.770875 20.4402723,62.994875 20.8711288,61.678875 C21.3754963,60.137875 22.3658537,59.078875 22.3658537,59.078875 C23.9912649,57.484875 25,55.281875 25,52.847875 C25,47.978875 20.9701645,44.030875 15.998979,44.028875 C15.998979,44.028875 20.9701645,44.030875 15.998979,44.028875 L15.998979,44.028875 L15.998979,44.028875 Z M17.5600681,66.660875 L14.4399319,66.660875 C14.1346568,66.660875 13.885536,66.419875 13.885536,66.118875 C13.885536,65.819875 14.1346568,65.578875 14.4399319,65.578875 L17.5600681,65.578875 C17.8633012,65.578875 18.112422,65.819875 18.112422,66.118875 C18.112422,66.419875 17.8633012,66.660875 17.5600681,66.660875 L17.5600681,66.660875 L17.5600681,66.660875 L17.5600681,66.660875 Z M18.191038,64.077875 L13.80692,64.077875 C13.5047079,64.077875 13.2555871,63.834875 13.2555871,63.534875 C13.2555871,63.238875 13.5047079,62.994875 13.80692,62.994875 L18.191038,62.994875 C18.4932501,62.994875 18.742371,63.238875 18.742371,63.534875 C18.742371,63.834875 18.4932501,64.077875 18.191038,64.077875 L18.191038,64.077875 L18.191038,64.077875 L18.191038,64.077875 Z M13.7895632,57.188875 C14.4195122,57.317875 14.9984118,57.308875 15.4823596,57.157875 C15.5916052,57.234875 15.7018718,57.321875 15.8376631,57.355875 C16.3981849,57.491875 17.0638684,57.536875 17.8193988,57.200875 L17.1455474,60.807875 L14.7768576,60.807875 L13.7895632,57.188875 L13.7895632,57.188875 L13.7895632,57.188875 L13.7895632,57.188875 Z M14.7921724,54.782875 C14.7247873,54.479875 14.8085082,54.188875 15.0321044,53.976875 C15.135224,53.878875 15.4006807,53.787875 15.6518434,53.794875 C16.1786727,53.810875 16.4451503,54.193875 16.4257516,54.563875 C16.4032898,54.973875 15.9785593,55.566875 15.5579126,55.886875 C15.1934203,55.605875 14.8922292,55.243875 14.7921724,54.782875 C14.7921724,54.782875 14.8922292,55.243875 14.7921724,54.782875 L14.7921724,54.782875 L14.7921724,54.782875 Z M21.5500851,58.281875 C21.478616,58.358875 20.5730006,59.342875 19.9716393,60.807875 L18.2083948,60.807875 L19.2977879,54.984875 L18.194101,55.850875 C17.9276234,56.059875 17.1639251,56.432875 16.5952354,56.432875 C16.5278503,56.432875 16.4635281,56.426875 16.4053318,56.417875 C16.8545661,55.931875 17.4763471,55.264875 17.3844583,54.265875 C17.2915485,53.401875 16.5635848,52.855875 15.5905842,52.855875 C14.7686897,52.855875 13.8610323,53.380875 13.808962,54.309875 C13.7640386,55.174875 14.1867272,55.675875 14.4715825,56.016875 C14.5655133,56.129875 14.6553602,56.238875 14.7247873,56.327875 C14.6951787,56.328875 14.6645491,56.328875 14.6328985,56.328875 C13.9610891,56.328875 13.2913216,56.036875 13.2913216,56.036875 L12.2703347,55.573875 L13.6956324,60.807875 L12.0263188,60.807875 C11.4249575,59.342875 10.521384,58.358875 10.4499149,58.281875 C8.96744186,56.828875 8.15269427,54.899875 8.15269427,52.847875 C8.15269427,48.609875 11.6720363,45.159875 15.998979,45.157875 C20.3279637,45.159875 23.8473057,48.609875 23.8473057,52.847875 C23.8473057,54.899875 23.0325581,56.828875 21.5500851,58.281875 L21.5500851,58.281875 Z M21.5500851,58.281875" id="lightbulb-line--body-grey" fill="#67737B" sketch:type="MSShapeGroup"></path>
        <path d="M15.998979,4.028875 C11.0277935,4.030875 7,7.978875 7,12.847875 C7,15.281875 8.00669314,17.484875 9.63210437,19.078875 C9.63210437,19.078875 10.6224617,20.137875 11.1268293,21.678875 C11.5576858,22.994875 11.6536585,24.770875 11.6536585,24.770875 C11.6536585,27.120875 13.5976177,29.026875 15.998979,29.028875 C18.4003403,29.026875 20.3442995,27.120875 20.3442995,24.770875 C20.3442995,24.770875 20.4402723,22.994875 20.8711288,21.678875 C21.3754963,20.137875 22.3658537,19.078875 22.3658537,19.078875 C23.9912649,17.484875 25,15.281875 25,12.847875 C25,7.978875 20.9701645,4.030875 15.998979,4.028875 C15.998979,4.028875 20.9701645,4.030875 15.998979,4.028875 L15.998979,4.028875 L15.998979,4.028875 Z M17.5600681,26.660875 L14.4399319,26.660875 C14.1346568,26.660875 13.885536,26.419875 13.885536,26.118875 C13.885536,25.819875 14.1346568,25.578875 14.4399319,25.578875 L17.5600681,25.578875 C17.8633012,25.578875 18.112422,25.819875 18.112422,26.118875 C18.112422,26.419875 17.8633012,26.660875 17.5600681,26.660875 L17.5600681,26.660875 L17.5600681,26.660875 L17.5600681,26.660875 Z M18.191038,24.077875 L13.80692,24.077875 C13.5047079,24.077875 13.2555871,23.834875 13.2555871,23.534875 C13.2555871,23.238875 13.5047079,22.994875 13.80692,22.994875 L18.191038,22.994875 C18.4932501,22.994875 18.742371,23.238875 18.742371,23.534875 C18.742371,23.834875 18.4932501,24.077875 18.191038,24.077875 L18.191038,24.077875 L18.191038,24.077875 L18.191038,24.077875 Z M13.7895632,17.188875 C14.4195122,17.317875 14.9984118,17.308875 15.4823596,17.157875 C15.5916052,17.234875 15.7018718,17.321875 15.8376631,17.355875 C16.3981849,17.491875 17.0638684,17.536875 17.8193988,17.200875 L17.1455474,20.807875 L14.7768576,20.807875 L13.7895632,17.188875 L13.7895632,17.188875 L13.7895632,17.188875 L13.7895632,17.188875 Z M14.7921724,14.782875 C14.7247873,14.479875 14.8085082,14.188875 15.0321044,13.976875 C15.135224,13.878875 15.4006807,13.787875 15.6518434,13.794875 C16.1786727,13.810875 16.4451503,14.193875 16.4257516,14.563875 C16.4032898,14.973875 15.9785593,15.566875 15.5579126,15.886875 C15.1934203,15.605875 14.8922292,15.243875 14.7921724,14.782875 C14.7921724,14.782875 14.8922292,15.243875 14.7921724,14.782875 L14.7921724,14.782875 L14.7921724,14.782875 Z M21.5500851,18.281875 C21.478616,18.358875 20.5730006,19.342875 19.9716393,20.807875 L18.2083948,20.807875 L19.2977879,14.984875 L18.194101,15.850875 C17.9276234,16.059875 17.1639251,16.432875 16.5952354,16.432875 C16.5278503,16.432875 16.4635281,16.426875 16.4053318,16.417875 C16.8545661,15.931875 17.4763471,15.264875 17.3844583,14.265875 C17.2915485,13.401875 16.5635848,12.855875 15.5905842,12.855875 C14.7686897,12.855875 13.8610323,13.380875 13.808962,14.309875 C13.7640386,15.174875 14.1867272,15.675875 14.4715825,16.016875 C14.5655133,16.129875 14.6553602,16.238875 14.7247873,16.327875 C14.6951787,16.328875 14.6645491,16.328875 14.6328985,16.328875 C13.9610891,16.328875 13.2913216,16.036875 13.2913216,16.036875 L12.2703347,15.573875 L13.6956324,20.807875 L12.0263188,20.807875 C11.4249575,19.342875 10.521384,18.358875 10.4499149,18.281875 C8.96744186,16.828875 8.15269427,14.899875 8.15269427,12.847875 C8.15269427,8.609875 11.6720363,5.159875 15.998979,5.157875 C20.3279637,5.159875 23.8473057,8.609875 23.8473057,12.847875 C23.8473057,14.899875 23.0325581,16.828875 21.5500851,18.281875 L21.5500851,18.281875 Z M21.5500851,18.281875" id="lightbulb-line--title-grey" fill="#3A434E" sketch:type="MSShapeGroup"></path>
    </g>
</svg>

<svg width="32" height="232" viewBox="0 0 32 232" xmlns="http://www.w3.org/2000/svg" xmlns:sketch="http://www.bohemiancoding.com/sketch/ns"><title>lightbulb--line</title><g sketch:type="MSPage" fill="none"><path d="M15.999 124.029c-4.971.002-8.999 3.95-8.999 8.819 0 2.434 1.007 4.637 2.632 6.231 0 0 .99 1.059 1.495 2.6.431 1.316.527 3.092.527 3.092 0 2.35 1.944 4.256 4.345 4.258 2.401-.002 4.345-1.908 4.345-4.258 0 0 .096-1.776.527-3.092.504-1.541 1.495-2.6 1.495-2.6 1.625-1.594 2.634-3.797 2.634-6.231 0-4.869-4.03-8.817-9.001-8.819zm1.561 22.632h-3.12c-.305 0-.554-.241-.554-.542 0-.299.249-.54.554-.54h3.12c.303 0 .552.241.552.54 0 .301-.249.542-.552.542zm.631-2.583h-4.384c-.302 0-.551-.243-.551-.543 0-.296.249-.54.551-.54h4.384c.302 0 .551.244.551.54 0 .3-.249.543-.551.543zm-4.401-6.889c.63.129 1.209.12 1.693-.031.109.077.22.164.355.198.561.136 1.226.181 1.982-.155l-.674 3.607h-2.369l-.987-3.619zm1.003-2.406c-.067-.303.016-.594.24-.806.103-.098.369-.189.62-.182.527.016.793.399.774.769-.022.41-.447 1.003-.868 1.323-.364-.281-.666-.643-.766-1.104zm6.758 3.499c-.071.077-.977 1.061-1.578 2.526h-1.763l1.089-5.823-1.104.866c-.266.209-1.03.582-1.599.582l-.19-.015c.449-.486 1.071-1.153.979-2.152-.093-.864-.821-1.41-1.794-1.41-.822 0-1.73.525-1.782 1.454-.045.865.378 1.366.663 1.707l.253.311-.092.001c-.672 0-1.342-.292-1.342-.292l-1.021-.463 1.425 5.234h-1.669c-.601-1.465-1.505-2.449-1.576-2.526-1.482-1.453-2.297-3.382-2.297-5.434 0-4.238 3.519-7.688 7.846-7.69 4.329.002 7.848 3.452 7.848 7.69 0 2.052-.815 3.981-2.297 5.434zm0 0" fill="#206FAC" sketch:type="MSShapeGroup"/><path d="M15.999 84.029c-4.971.002-8.999 3.95-8.999 8.819 0 2.434 1.007 4.637 2.632 6.231 0 0 .99 1.059 1.495 2.6.431 1.316.527 3.092.527 3.092 0 2.35 1.944 4.256 4.345 4.258 2.401-.002 4.345-1.908 4.345-4.258 0 0 .096-1.776.527-3.092.504-1.541 1.495-2.6 1.495-2.6 1.625-1.594 2.634-3.797 2.634-6.231 0-4.869-4.03-8.817-9.001-8.819zm1.561 22.632h-3.12c-.305 0-.554-.241-.554-.542 0-.299.249-.54.554-.54h3.12c.303 0 .552.241.552.54 0 .301-.249.542-.552.542zm.631-2.583h-4.384c-.302 0-.551-.243-.551-.543 0-.296.249-.54.551-.54h4.384c.302 0 .551.244.551.54 0 .3-.249.543-.551.543zm-4.401-6.889c.63.129 1.209.12 1.693-.031.109.077.22.164.355.198.561.136 1.226.181 1.982-.155l-.674 3.607h-2.369l-.987-3.619zm1.003-2.406c-.067-.303.016-.594.24-.806.103-.098.369-.189.62-.182.527.016.793.399.774.769-.022.41-.447 1.003-.868 1.323-.364-.281-.666-.643-.766-1.104zm6.758 3.499c-.071.077-.977 1.061-1.578 2.526h-1.763l1.089-5.823-1.104.866c-.266.209-1.03.582-1.599.582l-.19-.015c.449-.486 1.071-1.153.979-2.152-.093-.864-.821-1.41-1.794-1.41-.822 0-1.73.525-1.782 1.454-.045.865.378 1.366.663 1.707l.253.311-.092.001c-.672 0-1.342-.292-1.342-.292l-1.021-.463 1.425 5.234h-1.669c-.601-1.465-1.505-2.449-1.576-2.526-1.482-1.453-2.297-3.382-2.297-5.434 0-4.238 3.519-7.688 7.846-7.69 4.329.002 7.848 3.452 7.848 7.69 0 2.052-.815 3.981-2.297 5.434zm0 0" fill="#fff" sketch:type="MSShapeGroup"/><path d="M15.999 44.029c-4.971.002-8.999 3.95-8.999 8.819 0 2.434 1.007 4.637 2.632 6.231 0 0 .99 1.059 1.495 2.6.431 1.316.527 3.092.527 3.092 0 2.35 1.944 4.256 4.345 4.258 2.401-.002 4.345-1.908 4.345-4.258 0 0 .096-1.776.527-3.092.504-1.541 1.495-2.6 1.495-2.6 1.625-1.594 2.634-3.797 2.634-6.231 0-4.869-4.03-8.817-9.001-8.819zm1.561 22.632h-3.12c-.305 0-.554-.241-.554-.542 0-.299.249-.54.554-.54h3.12c.303 0 .552.241.552.54 0 .301-.249.542-.552.542zm.631-2.583h-4.384c-.302 0-.551-.243-.551-.543 0-.296.249-.54.551-.54h4.384c.302 0 .551.244.551.54 0 .3-.249.543-.551.543zm-4.401-6.889c.63.129 1.209.12 1.693-.031.109.077.22.164.355.198.561.136 1.226.181 1.982-.155l-.674 3.607h-2.369l-.987-3.619zm1.003-2.406c-.067-.303.016-.594.24-.806.103-.098.369-.189.62-.182.527.016.793.399.774.769-.022.41-.447 1.003-.868 1.323-.364-.281-.666-.643-.766-1.104zm6.758 3.499c-.071.077-.977 1.061-1.578 2.526h-1.763l1.089-5.823-1.104.866c-.266.209-1.03.582-1.599.582l-.19-.015c.449-.486 1.071-1.153.979-2.152-.093-.864-.821-1.41-1.794-1.41-.822 0-1.73.525-1.782 1.454-.045.865.378 1.366.663 1.707l.253.311-.092.001c-.672 0-1.342-.292-1.342-.292l-1.021-.463 1.425 5.234h-1.669c-.601-1.465-1.505-2.449-1.576-2.526-1.482-1.453-2.297-3.382-2.297-5.434 0-4.238 3.519-7.688 7.846-7.69 4.329.002 7.848 3.452 7.848 7.69 0 2.052-.815 3.981-2.297 5.434zm0 0" fill="#67737B" sketch:type="MSShapeGroup"/><path d="M15.999 4.029c-4.971.002-8.999 3.95-8.999 8.819 0 2.434 1.007 4.637 2.632 6.231 0 0 .99 1.059 1.495 2.6.431 1.316.527 3.092.527 3.092 0 2.35 1.944 4.256 4.345 4.258 2.401-.002 4.345-1.908 4.345-4.258 0 0 .096-1.776.527-3.092.504-1.541 1.495-2.6 1.495-2.6 1.625-1.594 2.634-3.797 2.634-6.231 0-4.869-4.03-8.817-9.001-8.819zm1.561 22.632h-3.12c-.305 0-.554-.241-.554-.542 0-.299.249-.54.554-.54h3.12c.303 0 .552.241.552.54 0 .301-.249.542-.552.542zm.631-2.583h-4.384c-.302 0-.551-.243-.551-.543 0-.296.249-.54.551-.54h4.384c.302 0 .551.244.551.54 0 .3-.249.543-.551.543zm-4.401-6.889c.63.129 1.209.12 1.693-.031.109.077.22.164.355.198.561.136 1.226.181 1.982-.155l-.674 3.607h-2.369l-.987-3.619zm1.003-2.406c-.067-.303.016-.594.24-.806.103-.098.369-.189.62-.182.527.016.793.399.774.769-.022.41-.447 1.003-.868 1.323-.364-.281-.666-.643-.766-1.104zm6.758 3.499c-.071.077-.977 1.061-1.578 2.526h-1.763l1.089-5.823-1.104.866c-.266.209-1.03.582-1.599.582l-.19-.015c.449-.486 1.071-1.153.979-2.152-.093-.864-.821-1.41-1.794-1.41-.822 0-1.73.525-1.782 1.454-.045.865.378 1.366.663 1.707l.253.311-.092.001c-.672 0-1.342-.292-1.342-.292l-1.021-.463 1.425 5.234h-1.669c-.601-1.465-1.505-2.449-1.576-2.526-1.482-1.453-2.297-3.382-2.297-5.434 0-4.238 3.519-7.688 7.846-7.69 4.329.002 7.848 3.452 7.848 7.69 0 2.052-.815 3.981-2.297 5.434zm0 0" fill="#3A434E" sketch:type="MSShapeGroup"/></g></svg>
